src/icons/32/profile-colored-square.svg

<svg width="33" height="32" viewBox="0 0 33 32" fill="none" xmlns="http://www.w3.org/2000/svg">
  <path
    d="M1.5 10.6C1.5 7.23968 1.5 5.55953 2.15396 4.27606C2.7292 3.14708 3.64708 2.2292 4.77606 1.65396C6.05953 1 7.73969 1 11.1 1H21.9C25.2603 1 26.9405 1 28.2239 1.65396C29.3529 2.2292 30.2708 3.14708 30.846 4.27606C31.5 5.55953 31.5 7.23969 31.5 10.6V21.4C31.5 24.7603 31.5 26.4405 30.846 27.7239C30.2708 28.8529 29.3529 29.7708 28.2239 30.346C26.9405 31 25.2603 31 21.9 31H11.1C7.73968 31 6.05953 31 4.77606 30.346C3.64708 29.7708 2.7292 28.8529 2.15396 27.7239C1.5 26.4405 1.5 24.7603 1.5 21.4V10.6Z"
    fill="#008AFF"
  />
  <path
    d="M18.459 13.2759H22.9912C23.1351 13.2759 23.2568 13.2261 23.3564 13.1265C23.4561 13.0269 23.5059 12.9051 23.5059 12.7612C23.5059 12.6174 23.4561 12.4984 23.3564 12.4043C23.2568 12.3047 23.1351 12.2549 22.9912 12.2549H18.459C18.3096 12.2549 18.1851 12.3047 18.0854 12.4043C17.9858 12.4984 17.936 12.6174 17.936 12.7612C17.936 12.9051 17.9858 13.0269 18.0854 13.1265C18.1851 13.2261 18.3096 13.2759 18.459 13.2759ZM18.459 16.5298H22.9912C23.1351 16.5298 23.2568 16.48 23.3564 16.3804C23.4561 16.2808 23.5059 16.1562 23.5059 16.0068C23.5059 15.8685 23.4561 15.7523 23.3564 15.6582C23.2568 15.5586 23.1351 15.5088 22.9912 15.5088H18.459C18.3096 15.5088 18.1851 15.5586 18.0854 15.6582C17.9858 15.7523 17.936 15.8685 17.936 16.0068C17.936 16.1562 17.9858 16.2808 18.0854 16.3804C18.1851 16.48 18.3096 16.5298 18.459 16.5298ZM18.459 19.7754H22.9912C23.1351 19.7754 23.2568 19.7284 23.3564 19.6343C23.4561 19.5347 23.5059 19.4157 23.5059 19.2773C23.5059 19.1335 23.4561 19.0117 23.3564 18.9121C23.2568 18.807 23.1351 18.7544 22.9912 18.7544H18.459C18.3096 18.7544 18.1851 18.807 18.0854 18.9121C17.9858 19.0117 17.936 19.1335 17.936 19.2773C17.936 19.4157 17.9858 19.5347 18.0854 19.6343C18.1851 19.7284 18.3096 19.7754 18.459 19.7754ZM9.80957 19.8335H16.2925C16.4253 19.8335 16.5249 19.792 16.5913 19.709C16.6632 19.626 16.6992 19.5236 16.6992 19.4019C16.6992 19.2026 16.6245 18.9508 16.4751 18.6465C16.3312 18.3366 16.1071 18.0267 15.8027 17.7168C15.5039 17.4014 15.1248 17.1385 14.6655 16.9282C14.2062 16.7179 13.6667 16.6128 13.0469 16.6128C12.4271 16.6128 11.8875 16.7179 11.4282 16.9282C10.9744 17.1385 10.5954 17.4014 10.291 17.7168C9.99219 18.0267 9.76807 18.3366 9.61865 18.6465C9.47477 18.9508 9.40283 19.2026 9.40283 19.4019C9.40283 19.5236 9.43604 19.626 9.50244 19.709C9.57438 19.792 9.67676 19.8335 9.80957 19.8335ZM13.0469 16.0317C13.5505 16.0317 13.9793 15.8436 14.3335 15.4673C14.6877 15.091 14.8647 14.6178 14.8647 14.0479C14.8647 13.6937 14.7817 13.37 14.6157 13.0767C14.4552 12.7834 14.2367 12.5482 13.96 12.3711C13.6888 12.194 13.3844 12.1055 13.0469 12.1055C12.7148 12.1055 12.4105 12.194 12.1338 12.3711C11.8571 12.5482 11.6357 12.7834 11.4697 13.0767C11.3092 13.37 11.229 13.6937 11.229 14.0479C11.229 14.6178 11.4061 15.091 11.7603 15.4673C12.12 15.8436 12.5488 16.0317 13.0469 16.0317ZM9.31982 23.6519C8.45101 23.6519 7.79801 23.436 7.36084 23.0044C6.9292 22.5783 6.71338 21.9391 6.71338 21.0869V10.9434C6.71338 10.0856 6.9292 9.44368 7.36084 9.01758C7.79801 8.58594 8.45101 8.37012 9.31982 8.37012H23.6802C24.5545 8.37012 25.2075 8.58594 25.6392 9.01758C26.0708 9.44922 26.2866 10.0911 26.2866 10.9434V21.0869C26.2866 21.9391 26.0708 22.5783 25.6392 23.0044C25.2075 23.436 24.5545 23.6519 23.6802 23.6519H9.31982Z"
    fill="white"
  />
</svg>

<svg width="33" height="32" viewBox="0 0 33 32" fill="none" xmlns="http://www.w3.org/2000/svg">
  <path d="M1.5 10.6c0-3.36 0-5.04.654-6.324a6 6 0 0 1 2.622-2.622C6.06 1 7.74 1 11.1 1h10.8c3.36 0 5.04 0 6.324.654a6 6 0 0 1 2.622 2.622C31.5 5.56 31.5 7.24 31.5 10.6v10.8c0 3.36 0 5.04-.654 6.324a6 6 0 0 1-2.622 2.622C26.94 31 25.26 31 21.9 31H11.1c-3.36 0-5.04 0-6.324-.654a6 6 0 0 1-2.622-2.622C1.5 26.44 1.5 24.76 1.5 21.4z" fill="#008AFF"/>
  <path d="M18.459 13.276h4.532q.216 0 .365-.15.15-.149.15-.365a.47.47 0 0 0-.15-.357.5.5 0 0 0-.365-.15H18.46q-.225 0-.374.15a.47.47 0 0 0-.149.357q0 .216.15.366t.373.149m0 3.254h4.532q.216 0 .365-.15.15-.15.15-.373a.46.46 0 0 0-.15-.349.5.5 0 0 0-.365-.15H18.46q-.225 0-.374.15a.46.46 0 0 0-.149.349.507.507 0 0 0 .523.523m0 3.245h4.532a.5.5 0 0 0 .365-.14q.15-.15.15-.358a.5.5 0 0 0-.15-.365.48.48 0 0 0-.365-.158H18.46a.5.5 0 0 0-.374.158q-.15.15-.149.365 0 .208.15.357.15.141.373.141m-8.65.059h6.484q.198 0 .298-.125a.45.45 0 0 0 .108-.307q0-.3-.224-.756a3.4 3.4 0 0 0-.672-.93 3.6 3.6 0 0 0-1.138-.788q-.688-.315-1.618-.315t-1.619.315a3.8 3.8 0 0 0-1.137.789q-.448.465-.672.93-.216.456-.216.755 0 .183.1.307a.39.39 0 0 0 .307.125m3.238-3.802q.755 0 1.287-.565.53-.565.53-1.42 0-.53-.248-.97a1.9 1.9 0 0 0-.656-.706 1.63 1.63 0 0 0-.913-.266 1.66 1.66 0 0 0-.913.266 2 2 0 0 0-.664.706 2 2 0 0 0-.241.97q0 .856.531 1.42.54.565 1.287.565m-3.727 7.62q-1.303 0-1.96-.648-.646-.639-.647-1.917V10.943q0-1.287.648-1.925.656-.648 1.959-.648h14.36q1.312 0 1.96.648.646.647.647 1.925v10.144q0 1.278-.648 1.917-.647.648-1.959.648z" fill="#fff"/>
</svg>
